X:55
T:Wanstead Maggot. JJo1.055
B:J.Johnson Choice Collection Vol 1 after c1750?
Z:vmp. Anne Wride 2015. www.village-music-project.org.uk
M:C|
L:1/8
Q:1/2=100
R:Maggot
K:G
|: D2 G4 FE | F2 A4 A2 | G2 B4 AG | B2 d4 cB |
c2 e4 dc | B2 d4 cB | A2G2 BAGF | G8 ?
|: gfga gfga | g2 b4 a2 | fefg fefg | f2 a4 gf |
gfga gfga | g2 b4 ag | f2d2 fed^c |1 d8 ::2 d6||
|:cB |c2 e4 dc | B2 d4 cB | A2G2 BAGF | G6 ?
W:The 1st Man setts twice to the 2d Wo. & turns Her into his own Place
W:The 1st Wo. and 2d Man the same
W:The 1st Man Hey's on the We.s side and into his own Place
W:Then the 1st Wo. the same on the Mens side
W:Then all four sett
W:And Right Hand and Left once round.

